packages/icons/raw/imported/DevicesKeyboard.svg

<svg width="32" height="32" viewBox="0 0 32 32" fill="none" xmlns="http://www.w3.org/2000/svg">
<path d="M6.5 11H7H6.5ZM6.5 21H6H6.5ZM22.5 24V24.5V24ZM9.5 24V23.5H9.5L9.5 24ZM25.5 11H25H25.5ZM25.5 21H26H25.5ZM22.5 8.00003L22.5 8.50003H22.5V8.00003ZM9.5 8L9.5 7.5H9.5V8ZM21.8461 20.8638C22.1223 20.8638 22.3461 20.6399 22.3461 20.3638C22.3461 20.0876 22.1223 19.8638 21.8461 19.8638V20.8638ZM10.1538 19.8638C9.87766 19.8638 9.65381 20.0876 9.65381 20.3638C9.65381 20.6399 9.87766 20.8638 10.1538 20.8638V19.8638ZM10.6538 15.9846V16.9846C11.2061 16.9846 11.6538 16.5369 11.6538 15.9846H10.6538ZM10.6538 15.9846H9.65381C9.65381 16.5369 10.1015 16.9846 10.6538 16.9846V15.9846ZM10.6538 15.9846V14.9846C10.1015 14.9846 9.65381 15.4323 9.65381 15.9846H10.6538ZM10.6538 15.9846H11.6538C11.6538 15.4323 11.2061 14.9846 10.6538 14.9846V15.9846ZM10.6538 12.3483V13.3483C11.2061 13.3483 11.6538 12.9005 11.6538 12.3483H10.6538ZM10.6538 12.3483H9.65381C9.65381 12.9005 10.1015 13.3483 10.6538 13.3483V12.3483ZM10.6538 12.3483V11.3483C10.1015 11.3483 9.65381 11.796 9.65381 12.3483H10.6538ZM10.6538 12.3483H11.6538C11.6538 11.796 11.2061 11.3483 10.6538 11.3483V12.3483ZM14.3076 15.9846H14.3076V16.9846C14.8599 16.9846 15.3076 16.5369 15.3076 15.9846H14.3076ZM14.3076 15.9846H13.3076C13.3076 16.5369 13.7553 16.9846 14.3076 16.9846V15.9846ZM14.3076 15.9846V14.9846C13.7553 14.9846 13.3076 15.4323 13.3076 15.9846H14.3076ZM14.3076 15.9846H14.3076H15.3076C15.3076 15.4323 14.8599 14.9846 14.3076 14.9846V15.9846ZM14.3076 12.3483H14.3076V13.3483C14.8599 13.3483 15.3076 12.9005 15.3076 12.3483H14.3076ZM14.3076 12.3483H13.3076C13.3076 12.9005 13.7553 13.3483 14.3076 13.3483V12.3483ZM14.3076 12.3483V11.3483C13.7553 11.3483 13.3076 11.796 13.3076 12.3483H14.3076ZM14.3076 12.3483H14.3076H15.3076C15.3076 11.796 14.8599 11.3483 14.3076 11.3483V12.3483ZM17.9614 15.9846V16.9846C18.5137 16.9846 18.9614 16.5369 18.9614 15.9846H17.9614ZM17.9614 15.9846H16.9614C16.9614 16.5369 17.4091 16.9846 17.9614 16.9846V15.9846ZM17.9614 15.9846V14.9846C17.4091 14.9846 16.9614 15.4323 16.9614 15.9846H17.9614ZM17.9614 15.9846H18.9614C18.9614 15.4323 18.5137 14.9846 17.9614 14.9846V15.9846ZM17.9614 12.3483V13.3483C18.5137 13.3483 18.9614 12.9005 18.9614 12.3483H17.9614ZM17.9614 12.3483H16.9614C16.9614 12.9005 17.4091 13.3483 17.9614 13.3483V12.3483ZM17.9614 12.3483V11.3483C17.4091 11.3483 16.9614 11.796 16.9614 12.3483H17.9614ZM17.9614 12.3483H18.9614C18.9614 11.796 18.5137 11.3483 17.9614 11.3483V12.3483ZM21.6152 15.9846V16.9846C22.1675 16.9846 22.6152 16.5369 22.6152 15.9846H21.6152ZM21.6152 15.9846H20.6152C20.6152 16.5369 21.0629 16.9846 21.6152 16.9846V15.9846ZM21.6152 15.9846V14.9846C21.0629 14.9846 20.6152 15.4323 20.6152 15.9846H21.6152ZM21.6152 15.9846H22.6152C22.6152 15.4323 22.1675 14.9846 21.6152 14.9846V15.9846ZM21.6152 12.3483V13.3483C22.1675 13.3483 22.6152 12.9005 22.6152 12.3483H21.6152ZM21.6152 12.3483H20.6152C20.6152 12.9005 21.0629 13.3483 21.6152 13.3483V12.3483ZM21.6152 12.3483V11.3483C21.0629 11.3483 20.6152 11.796 20.6152 12.3483H21.6152ZM21.6152 12.3483H22.6152C22.6152 11.796 22.1675 11.3483 21.6152 11.3483V12.3483ZM6 11L6 21H7L7 11H6ZM22.5 23.5L9.5 23.5V24.5L22.5 24.5V23.5ZM25 11V21H26V11H25ZM26 11C26 9.06703 24.433 7.50003 22.5 7.50003V8.50003C23.8807 8.50003 25 9.61932 25 11H26ZM7 11C7 9.61929 8.11929 8.5 9.5 8.5V7.5C7.56701 7.5 6 9.067 6 11H7ZM6 21C6 22.933 7.567 24.5 9.5 24.5L9.5 23.5C8.11929 23.5 7 22.3807 7 21H6ZM22.5 24.5C24.433 24.5 26 22.933 26 21H25C25 22.3807 23.8807 23.5 22.5 23.5V24.5ZM21.8461 19.8638L10.1538 19.8638V20.8638L21.8461 20.8638V19.8638ZM22.5 7.50003L9.5 7.5L9.5 8.5L22.5 8.50003L22.5 7.50003Z" fill="black"/>
</svg>

<svg width="32" height="32" fill="none" xmlns="http://www.w3.org/2000/svg"><path d="M6.5 11H7h-.5Zm0 10H6h.5Zm16 3v.5-.5Zm-13 0v-.5.5Zm16-13H25h.5Zm0 10h.5-.5Zm-3-13v.5V8Zm-13 0v-.5.5Zm12.346 12.864a.5.5 0 1 0 0-1v1Zm-11.692-1a.5.5 0 1 0 0 1v-1Zm.5-3.88v1a1 1 0 0 0 1-1h-1Zm0 0h-1a1 1 0 0 0 1 1v-1Zm0 0v-1a1 1 0 0 0-1 1h1Zm0 0h1a1 1 0 0 0-1-1v1Zm0-3.636v1a1 1 0 0 0 1-1h-1Zm0 0h-1a1 1 0 0 0 1 1v-1Zm0 0v-1a1 1 0 0 0-1 1h1Zm0 0h1a1 1 0 0 0-1-1v1Zm3.654 3.637v1a1 1 0 0 0 1-1h-1Zm0 0h-1a1 1 0 0 0 1 1v-1Zm0 0v-1a1 1 0 0 0-1 1h1Zm0 0h1a1 1 0 0 0-1-1v1Zm0-3.637v1a1 1 0 0 0 1-1h-1Zm0 0h-1a1 1 0 0 0 1 1v-1Zm0 0v-1a1 1 0 0 0-1 1h1Zm0 0h1a1 1 0 0 0-1-1v1Zm3.653 3.637v1a1 1 0 0 0 1-1h-1Zm0 0h-1a1 1 0 0 0 1 1v-1Zm0 0v-1a1 1 0 0 0-1 1h1Zm0 0h1a1 1 0 0 0-1-1v1Zm0-3.637v1a1 1 0 0 0 1-1h-1Zm0 0h-1a1 1 0 0 0 1 1v-1Zm0 0v-1a1 1 0 0 0-1 1h1Zm0 0h1a1 1 0 0 0-1-1v1Zm3.654 3.637v1a1 1 0 0 0 1-1h-1Zm0 0h-1a1 1 0 0 0 1 1v-1Zm0 0v-1a1 1 0 0 0-1 1h1Zm0 0h1a1 1 0 0 0-1-1v1Zm0-3.637v1a1 1 0 0 0 1-1h-1Zm0 0h-1a1 1 0 0 0 1 1v-1Zm0 0v-1a1 1 0 0 0-1 1h1Zm0 0h1a1 1 0 0 0-1-1v1ZM6 11v10h1V11H6Zm16.5 12.5h-13v1h13v-1ZM25 11v10h1V11h-1Zm1 0a3.5 3.5 0 0 0-3.5-3.5v1A2.5 2.5 0 0 1 25 11h1ZM7 11a2.5 2.5 0 0 1 2.5-2.5v-1A3.5 3.5 0 0 0 6 11h1ZM6 21a3.5 3.5 0 0 0 3.5 3.5v-1A2.5 2.5 0 0 1 7 21H6Zm16.5 3.5A3.5 3.5 0 0 0 26 21h-1a2.5 2.5 0 0 1-2.5 2.5v1Zm-.654-4.636H10.154v1h11.692v-1ZM22.5 7.5h-13v1h13v-1Z" fill="#000"/></svg>
